X:193
T:The Auction Sale Breakdo
R:reel
C:Bruce Osborne - June 2002
Z:abc by bosborne@kos.net
M:2/4
L:1/8
K:Bb
F/E/|D/B,/B,/F/ D/B,/F/B,/|E/G/B/G/ c/G/B/G/|F/A/c/A/ e/c/A/c/|B/d/c/B/ A/G/F/E/|\
D/B,/B,/F/ D/B,/F/B,/|E/G/B/G/ c/G/B/G/|F/A/c/A/ e/c/A/c/|B/d/ (3c/B/A/ B:|
|:F/E/|D/B,/D/F/ B/d/F/B/|D/F/B/c/ dc/B/|A/F/F/c/ A/F/c/F/|B/d/c/B/ A/G/F/E/|\
D/B,/D/F/ B/d/F/B/|D/F/B/c/ dc/B/|A/F/F/c/ A/F/c/F/|B/d/ (3c/B/A/ B:|
